X:042
T:Denis Enright's Slide 
B:CRE3.048 (SleamhnÃÂÃÂÃÂÃÂ¡n Donncha Mhic Ionnrachtaigh) 
F:file ID: cre.3/042den_en
R:slide
Q:180
M:12/8
L:1/8
K:D
Bcd A2F A3 A3|B2G A2F E3 E3|
Bcd A2F A3 A3|dcB A2F D3 D3:|
f2e d2f a3 a2f|g2f e2f g3 g2e|
f2e d2f a3 a3|efg f2e d3 d3:|

%%%

